X: 15
T:April 
R:
C:Alistair Anderson or Selma Kaplan
S:Nottingham Music Database, The 
M:3/4
L:1/8
K:G
GA|:B3B AG|AB GA Bd|e2 ed BA|Bd A2 AB|
G3 B AG|EG DE GA|[1 B2 dB AG|A4 GA:|
[2 B2 BGAG|G4 BA||
G3 A Bd|e3 d ef|g2 gf ed|egd2 ed|
B2 dB AG|AB GB AG|E2 ED B,D|E3 D EF|
G3 F GA|B3 G Bd|e2 ed BA|
Bd A2 AB|G3 BAG|EG DE GA|B2 BG A2|G4|]
